X: 5007
T: Breton Gavotte
R: hornpipe
M: 4/4
K: Aminor
E^F ^GA Bc AB|c/B/A Bc df e2|E^F ^GA Bc AB|c/B/A Bc A2 A2:|
e2 f/e/d ec AB|c/B/A Bc df e2|e2 f/e/d ec AB|c/B/A Bc A2 A2:|
ea g/f/e df ed|c/B/A Bc df e2|ea g/f/e df ed|c/B/A Bc A2 A2:|

